app/assets/icons/polaris/ThemeStoreMajor.svg

<svg viewBox="0 0 20 20" xmlns="http://www.w3.org/2000/svg"><path fill-rule="evenodd" d="M1.5 0a1.5 1.5 0 0 0-1.5 1.5v4a1.5 1.5 0 0 0 1.5 1.5h1.5v11.5a1.5 1.5 0 0 0 1.5 1.5h3.5a1 1 0 1 0 0-2h-3v-11h1.5a1.5 1.5 0 0 0 1.5-1.5v-.5h7a1 1 0 1 0 2 0v-.5a1.5 1.5 0 0 0-1.5-1.5h-7.5v-1.5a1.5 1.5 0 0 0-1.5-1.5h-5zm.5 2v3h4v-3h-4z"/><path fill-rule="evenodd" d="M9 8a1 1 0 0 0-1 1v5a1 1 0 0 0 .293.707l5 5a1 1 0 0 0 1.414 0l5-5a1 1 0 0 0 0-1.414l-5-5a1 1 0 0 0-.707-.293h-5zm4 4a1 1 0 1 1-2 0 1 1 0 0 1 2 0z"/></svg>

<svg viewBox="0 0 20 20" xmlns="http://www.w3.org/2000/svg"><path fill-rule="evenodd" d="M1.5 0A1.5 1.5 0 0 0 0 1.5v4A1.5 1.5 0 0 0 1.5 7H3v11.5A1.5 1.5 0 0 0 4.5 20H8a1 1 0 1 0 0-2H5V7h1.5A1.5 1.5 0 0 0 8 5.5V5h7a1 1 0 1 0 2 0v-.5A1.5 1.5 0 0 0 15.5 3H8V1.5A1.5 1.5 0 0 0 6.5 0h-5zM2 2v3h4V2H2z"/><path fill-rule="evenodd" d="M9 8a1 1 0 0 0-1 1v5a1 1 0 0 0 .293.707l5 5a1 1 0 0 0 1.414 0l5-5a1 1 0 0 0 0-1.414l-5-5A1 1 0 0 0 14 8H9zm4 4a1 1 0 1 1-2 0 1 1 0 0 1 2 0z"/></svg>
